cartflows/admin-core/assets/images/conditional.svg

<svg width="116" height="136" viewBox="0 0 116 136" fill="none" xmlns="http://www.w3.org/2000/svg">
<rect x="0.5" y="0.5" width="115" height="135" rx="9.5" fill="white" stroke="#EAEAEA"/>
<path d="M0 10C0 4.47715 4.47715 0 10 0H106C111.523 0 116 4.47715 116 10V26H0V10Z" fill="#E6EAED"/>
<rect x="13" y="10" width="91" height="7" rx="1" fill="white"/>
<path d="M55.1716 47.2426C56.7337 45.6805 59.2663 45.6805 60.8284 47.2426L88.7574 75.1716C90.3195 76.7337 90.3195 79.2663 88.7574 80.8284L60.8284 108.757C59.2663 110.319 56.7337 110.319 55.1716 108.757L27.2426 80.8284C25.6805 79.2663 25.6805 76.7337 27.2426 75.1716L55.1716 47.2426Z" fill="white" stroke="#2271B1" stroke-width="2"/>
<path d="M67.514 80.25C66.6849 80.2523 65.8799 80.5297 65.2254 81.0387C64.5708 81.5477 64.1037 82.2595 63.8972 83.0625H60.014C59.2684 83.0618 58.5534 82.7652 58.0261 82.2379C57.4988 81.7106 57.2023 80.9957 57.2015 80.25V76.5C57.1979 75.4824 56.8599 74.4942 56.2397 73.6875H63.8972C64.1254 74.5713 64.668 75.3414 65.4234 75.8537C66.1788 76.366 67.0952 76.5851 68.0006 76.4701C68.9061 76.3551 69.7385 75.9138 70.3418 75.229C70.9452 74.5441 71.2781 73.6627 71.2781 72.75C71.2781 71.8373 70.9452 70.9559 70.3418 70.271C69.7385 69.5862 68.9061 69.1449 68.0006 69.0299C67.0952 68.9149 66.1788 69.1341 65.4234 69.6463C64.668 70.1586 64.1254 70.9288 63.8972 71.8125H52.3809C52.1527 70.9288 51.6101 70.1586 50.8547 69.6463C50.0992 69.1341 49.1829 68.9149 48.2775 69.0299C47.372 69.1449 46.5396 69.5862 45.9362 70.271C45.3329 70.9559 45 71.8373 45 72.75C45 73.6627 45.3329 74.5441 45.9362 75.229C46.5396 75.9138 47.372 76.3551 48.2775 76.4701C49.1829 76.5851 50.0992 76.366 50.8547 75.8537C51.6101 75.3414 52.1527 74.5713 52.3809 73.6875H52.514C53.2597 73.6883 53.9747 73.9848 54.502 74.5121C55.0292 75.0394 55.3258 75.7543 55.3265 76.5V80.25C55.328 81.4928 55.8224 82.6842 56.7011 83.5629C57.5799 84.4417 58.7713 84.936 60.014 84.9375H63.8972C64.0736 85.6152 64.4365 86.2299 64.9447 86.7117C65.4529 87.1935 66.0861 87.5232 66.7722 87.6632C67.4584 87.8032 68.1701 87.7479 68.8264 87.5038C69.4828 87.2596 70.0575 86.8362 70.4853 86.2818C70.9131 85.7273 71.1769 85.064 71.2466 84.3672C71.3163 83.6704 71.1892 82.968 70.8798 82.3398C70.5703 81.7115 70.0909 81.1827 69.4959 80.8133C68.901 80.4439 68.2143 80.2487 67.514 80.25ZM67.514 70.875C67.8849 70.875 68.2474 70.985 68.5557 71.191C68.8641 71.397 69.1044 71.6899 69.2463 72.0325C69.3882 72.3751 69.4254 72.7521 69.353 73.1158C69.2807 73.4795 69.1021 73.8136 68.8399 74.0758C68.5776 74.3381 68.2436 74.5166 67.8798 74.589C67.5161 74.6613 67.1391 74.6242 66.7965 74.4823C66.4539 74.3404 66.1611 74.1 65.955 73.7917C65.749 73.4834 65.639 73.1208 65.639 72.75C65.6395 72.2529 65.8372 71.7763 66.1888 71.4247C66.5403 71.0732 67.0169 70.8755 67.514 70.875ZM48.764 74.625C48.3932 74.625 48.0307 74.515 47.7224 74.309C47.414 74.103 47.1737 73.8102 47.0318 73.4675C46.8899 73.1249 46.8527 72.7479 46.9251 72.3842C46.9974 72.0205 47.176 71.6864 47.4382 71.4242C47.7004 71.162 48.0345 70.9834 48.3983 70.911C48.762 70.8387 49.139 70.8758 49.4816 71.0177C49.8242 71.1596 50.117 71.4 50.3231 71.7083C50.5291 72.0167 50.639 72.3792 50.639 72.75C50.6385 73.2471 50.4408 73.7238 50.0893 74.0753C49.7378 74.4268 49.2612 74.6245 48.764 74.625ZM67.514 85.875C67.1432 85.875 66.7807 85.765 66.4723 85.559C66.164 85.353 65.9237 85.0602 65.7818 84.7175C65.6399 84.3749 65.6027 83.9979 65.6751 83.6342C65.7474 83.2705 65.926 82.9364 66.1882 82.6742C66.4504 82.412 66.7845 82.2334 67.1483 82.161C67.512 82.0887 67.889 82.1258 68.2316 82.2677C68.5742 82.4096 68.867 82.65 69.073 82.9583C69.2791 83.2667 69.389 83.6292 69.389 84C69.3883 84.4971 69.1905 84.9735 68.839 85.325C68.4876 85.6765 68.0111 85.8743 67.514 85.875Z" fill="#2271B1"/>
</svg>

<svg width="116" height="136" fill="none" xmlns="http://www.w3.org/2000/svg"><rect x=".5" y=".5" width="115" height="135" rx="9.5" fill="#fff" stroke="#EAEAEA"/><path d="M0 10C0 4.477 4.477 0 10 0h96c5.523 0 10 4.477 10 10v16H0V10Z" fill="#E6EAED"/><rect x="13" y="10" width="91" height="7" rx="1" fill="#fff"/><path d="M55.172 47.243a4 4 0 0 1 5.656 0l27.93 27.929a4 4 0 0 1 0 5.656l-27.93 27.929a4 4 0 0 1-5.656 0l-27.93-27.929a4 4 0 0 1 0-5.656l27.93-27.93Z" fill="#fff" stroke="#2271B1" stroke-width="2"/><path d="M67.514 80.25a3.745 3.745 0 0 0-3.617 2.813h-3.883a2.815 2.815 0 0 1-2.813-2.813V76.5a4.641 4.641 0 0 0-.961-2.813h7.657a3.75 3.75 0 1 0 0-1.874H52.381a3.75 3.75 0 1 0 0 1.874h.133a2.816 2.816 0 0 1 2.813 2.813v3.75a4.693 4.693 0 0 0 4.687 4.688h3.883a3.745 3.745 0 1 0 3.617-4.688Zm0-9.375a1.875 1.875 0 1 1 0 3.75 1.875 1.875 0 0 1 0-3.75Zm-18.75 3.75a1.875 1.875 0 1 1 0-3.75 1.875 1.875 0 0 1 0 3.75Zm18.75 11.25a1.875 1.875 0 1 1 0-3.751 1.875 1.875 0 0 1 0 3.751Z" fill="#2271B1"/></svg>
